X: 29387
T: Nia's
R: jig
M: 6/8
K: Dmajor
|:DFF AFF|BFF AFF|DFF AFF|B/c/dc dAF|
DFF AFF|BFF AFA|def edB|1 Adc dAF:|2 Adc d2e||
|:faa afe|dBA d2e|faa afe|def e2e|
faa afe|dBA d2e|f/g/af edB|1 Adc d2e:|2 Adc dAF||

